X: 1
T: the Walls of Limerick
T: Tie the Ribbons
B: roche2.292
S: http://norbeck.nu/abc/i/hnr2.abc
L: 1/8
M: 4/4
R: hornpipe
K: Edor
dc |\
BEEF GBAG | (3FED AD BDAD |\
GFEF GABc | dcdf e2 :|
ef |\
gfef gbag | fddc dfaf |\
[1 gfef gbaf | gfed Be :|\
[2 bgaf gfed | Bcdf e2 |]
